src/assets/badge-talented.svg

<svg width="77" height="82" viewBox="0 0 77 82" fill="none" xmlns="http://www.w3.org/2000/svg">
<mask id="path-1-inside-1" fill="white">
<path d="M38.5 0C36.5205 0 34.5537 0.662308 32.8593 1.87338L27.6145 5.51923L21.5715 6.30769H21.4733L21.3752 6.40546C19.3933 6.85115 17.5788 7.84704 16.1421 9.27771C14.7054 10.7084 13.7053 12.5152 13.2577 14.4888L13.1627 14.5865V14.6843L12.3709 20.7965L8.70969 25.5272L8.60834 25.625V25.7228C6.3945 29.2456 6.29631 33.7935 8.70969 37.1555L12.4691 42.3782L13.4604 47.8028L3.26534 63.2725L0 68.1042H15.1422L18.8034 76.5785L21.0806 82L24.346 77.0705L34.3415 62.0898C37.0273 63.1873 40.0582 63.2882 42.6585 62.0898L52.654 77.0705L55.9194 82L58.1966 76.5785L61.8578 68.1042H77L73.7347 63.2725L63.8373 48.2948L64.6291 42.3814L68.2903 37.1586L68.3917 37.0608V36.9631C70.6055 33.4402 70.7037 28.9902 68.2903 25.6282L64.6291 20.4022L63.4414 14.4888H63.5396C63.5269 14.4131 63.4541 14.3626 63.4414 14.2901C62.8713 10.1648 59.5933 6.81546 55.4253 6.30769H55.324L49.3855 5.51923L44.1407 1.87338C42.5027 0.678449 40.5304 0.0234286 38.5 0ZM38.5 6.40546C39.2284 6.40546 39.9474 6.62623 40.4795 6.99838L46.1202 11.0385L46.8138 11.5305L47.6056 11.6314L54.5353 12.6154H54.6303C56.0556 12.7731 57.0437 13.7602 57.2052 15.1795V15.375L58.4943 22.3734L58.5893 23.0641L59.0865 23.6538L63.1437 29.2708C63.9006 30.3179 63.9988 32.0935 63.0455 33.6074L58.5925 39.8173L58.4911 40.6058L57.503 47.5064V47.601C57.4503 48.0939 57.2809 48.5673 57.0089 48.9824L56.8094 49.0833V49.1779C56.3387 49.7409 55.6636 50.0957 54.9312 50.1651H54.7317L47.5074 51.4487L46.7156 51.5433L46.1202 52.0385L40.4795 56.0785C39.428 56.8323 37.5467 56.9301 36.0264 55.9808L30.8798 52.0385L30.2844 51.5465L29.3944 51.4455L22.4647 50.4615H22.3697C21.9218 50.4222 21.4901 50.2761 21.1108 50.0357C20.7316 49.7953 20.416 49.4675 20.1906 49.0802C19.9802 48.7164 19.8455 48.3142 19.7948 47.8975V47.7019L18.5089 40.508L18.4075 39.7195L17.9135 39.1266L13.8563 33.5096C13.0994 32.4625 13.0012 30.5892 13.9545 29.0753L17.9135 23.9503L18.4075 23.3574L18.5057 22.4712L19.3989 15.867C19.4115 15.8197 19.4844 15.8197 19.497 15.7692C19.6945 15.01 20.0923 14.3172 20.6492 13.7627C21.2061 13.2081 21.9018 12.812 22.6642 12.6154C22.7149 12.6028 22.7149 12.5302 22.7624 12.5176L29.3944 11.6282L30.1862 11.5336L30.8798 11.0385L36.5205 6.99838C37.0526 6.62938 37.7716 6.40546 38.5 6.40546ZM60.3724 54.4038L65.2245 61.7965H57.598L56.8062 63.7676L54.6303 68.7917L47.9001 58.5417L49.3824 57.4599L55.6217 56.375V56.4728C55.6945 56.4602 55.742 56.3876 55.818 56.375C57.485 56.1355 59.0567 55.4548 60.3692 54.4038H60.3724ZM16.6276 54.5016C18.0028 55.7467 19.7305 56.5386 21.5747 56.7692H21.6729L27.7127 57.5577L29.0967 58.6426L22.3665 68.7917L20.1906 63.7676L19.3989 61.7965H11.7787L16.6276 54.5016Z"/>
</mask>
<path d="M38.5 0C36.5205 0 34.5537 0.662308 32.8593 1.87338L27.6145 5.51923L21.5715 6.30769H21.4733L21.3752 6.40546C19.3933 6.85115 17.5788 7.84704 16.1421 9.27771C14.7054 10.7084 13.7053 12.5152 13.2577 14.4888L13.1627 14.5865V14.6843L12.3709 20.7965L8.70969 25.5272L8.60834 25.625V25.7228C6.3945 29.2456 6.29631 33.7935 8.70969 37.1555L12.4691 42.3782L13.4604 47.8028L3.26534 63.2725L0 68.1042H15.1422L18.8034 76.5785L21.0806 82L24.346 77.0705L34.3415 62.0898C37.0273 63.1873 40.0582 63.2882 42.6585 62.0898L52.654 77.0705L55.9194 82L58.1966 76.5785L61.8578 68.1042H77L73.7347 63.2725L63.8373 48.2948L64.6291 42.3814L68.2903 37.1586L68.3917 37.0608V36.9631C70.6055 33.4402 70.7037 28.9902 68.2903 25.6282L64.6291 20.4022L63.4414 14.4888H63.5396C63.5269 14.4131 63.4541 14.3626 63.4414 14.2901C62.8713 10.1648 59.5933 6.81546 55.4253 6.30769H55.324L49.3855 5.51923L44.1407 1.87338C42.5027 0.678449 40.5304 0.0234286 38.5 0ZM38.5 6.40546C39.2284 6.40546 39.9474 6.62623 40.4795 6.99838L46.1202 11.0385L46.8138 11.5305L47.6056 11.6314L54.5353 12.6154H54.6303C56.0556 12.7731 57.0437 13.7602 57.2052 15.1795V15.375L58.4943 22.3734L58.5893 23.0641L59.0865 23.6538L63.1437 29.2708C63.9006 30.3179 63.9988 32.0935 63.0455 33.6074L58.5925 39.8173L58.4911 40.6058L57.503 47.5064V47.601C57.4503 48.0939 57.2809 48.5673 57.0089 48.9824L56.8094 49.0833V49.1779C56.3387 49.7409 55.6636 50.0957 54.9312 50.1651H54.7317L47.5074 51.4487L46.7156 51.5433L46.1202 52.0385L40.4795 56.0785C39.428 56.8323 37.5467 56.9301 36.0264 55.9808L30.8798 52.0385L30.2844 51.5465L29.3944 51.4455L22.4647 50.4615H22.3697C21.9218 50.4222 21.4901 50.2761 21.1108 50.0357C20.7316 49.7953 20.416 49.4675 20.1906 49.0802C19.9802 48.7164 19.8455 48.3142 19.7948 47.8975V47.7019L18.5089 40.508L18.4075 39.7195L17.9135 39.1266L13.8563 33.5096C13.0994 32.4625 13.0012 30.5892 13.9545 29.0753L17.9135 23.9503L18.4075 23.3574L18.5057 22.4712L19.3989 15.867C19.4115 15.8197 19.4844 15.8197 19.497 15.7692C19.6945 15.01 20.0923 14.3172 20.6492 13.7627C21.2061 13.2081 21.9018 12.812 22.6642 12.6154C22.7149 12.6028 22.7149 12.5302 22.7624 12.5176L29.3944 11.6282L30.1862 11.5336L30.8798 11.0385L36.5205 6.99838C37.0526 6.62938 37.7716 6.40546 38.5 6.40546ZM60.3724 54.4038L65.2245 61.7965H57.598L56.8062 63.7676L54.6303 68.7917L47.9001 58.5417L49.3824 57.4599L55.6217 56.375V56.4728C55.6945 56.4602 55.742 56.3876 55.818 56.375C57.485 56.1355 59.0567 55.4548 60.3692 54.4038H60.3724ZM16.6276 54.5016C18.0028 55.7467 19.7305 56.5386 21.5747 56.7692H21.6729L27.7127 57.5577L29.0967 58.6426L22.3665 68.7917L20.1906 63.7676L19.3989 61.7965H11.7787L16.6276 54.5016Z" fill="black" stroke="#F2F2F2" stroke-width="4" mask="url(#path-1-inside-1)"/>
</svg>

<svg xmlns="http://www.w3.org/2000/svg" width="77" height="82" fill="none"><mask id="a" fill="#fff"><path d="M38.5 0c-1.98 0-3.946.662-5.64 1.873L27.614 5.52l-6.043.789h-.099l-.098.097a10.762 10.762 0 0 0-5.233 2.873 10.692 10.692 0 0 0-2.884 5.21l-.095.098v.098l-.792 6.113-3.661 4.73-.102.098v.098c-2.214 3.523-2.312 8.07.102 11.433l3.76 5.222.99 5.425-10.195 15.47L0 68.103h15.142l3.661 8.475L21.081 82l3.265-4.93 9.996-14.98c2.685 1.097 5.716 1.198 8.316 0l9.996 14.98L55.919 82l2.278-5.421 3.66-8.475H77l-3.265-4.831-9.898-14.978.792-5.914 3.661-5.222.102-.098v-.098c2.214-3.523 2.312-7.973-.102-11.335l-3.66-5.226-1.189-5.913h.099c-.013-.076-.086-.126-.099-.199-.57-4.125-3.848-7.475-8.016-7.982h-.101l-5.938-.789-5.245-3.646A9.763 9.763 0 0 0 38.5 0Zm0 6.405c.728 0 1.447.221 1.98.593l5.64 4.04.694.492.792.101 6.93.984h.094c1.426.158 2.414 1.145 2.575 2.565v.195l1.29 6.998.094.691.498.59 4.057 5.617c.757 1.047.855 2.822-.099 4.336l-4.453 6.21-.1.789-.989 6.9v.095a3.127 3.127 0 0 1-.494 1.381l-.2.101v.095a2.791 2.791 0 0 1-1.878.987h-.2l-7.224 1.284-.791.094-.596.495-5.64 4.04c-1.052.754-2.933.852-4.454-.097l-5.146-3.943-.596-.491-.89-.101-6.93-.984h-.094a2.81 2.81 0 0 1-2.18-1.382 3.113 3.113 0 0 1-.395-1.182v-.196l-1.286-7.194-.102-.789-.494-.592-4.057-5.617c-.757-1.047-.855-2.92.098-4.435l3.96-5.125.493-.593.099-.886.893-6.604c.012-.047.085-.047.098-.098a4.392 4.392 0 0 1 1.152-2.006 4.42 4.42 0 0 1 2.015-1.148c.05-.012.05-.085.098-.097l6.632-.89.792-.094.694-.495 5.64-4.04c.533-.37 1.252-.594 1.98-.594Zm21.872 47.999 4.853 7.392h-7.627l-.792 1.972-2.176 5.024-6.73-10.25 1.482-1.082 6.24-1.085v.098c.072-.013.12-.085.196-.098a9.425 9.425 0 0 0 4.551-1.971h.003Zm-43.744.098a9.042 9.042 0 0 0 4.947 2.267h.098l6.04.789 1.384 1.085-6.73 10.149-2.176-5.024-.792-1.971h-7.62l4.849-7.295Z"/></mask><path fill="#000" stroke="#F2F2F2" stroke-width="4" d="M38.5 0c-1.98 0-3.946.662-5.64 1.873L27.614 5.52l-6.043.789h-.099l-.098.097a10.762 10.762 0 0 0-5.233 2.873 10.692 10.692 0 0 0-2.884 5.21l-.095.098v.098l-.792 6.113-3.661 4.73-.102.098v.098c-2.214 3.523-2.312 8.07.102 11.433l3.76 5.222.99 5.425-10.195 15.47L0 68.103h15.142l3.661 8.475L21.081 82l3.265-4.93 9.996-14.98c2.685 1.097 5.716 1.198 8.316 0l9.996 14.98L55.919 82l2.278-5.421 3.66-8.475H77l-3.265-4.831-9.898-14.978.792-5.914 3.661-5.222.102-.098v-.098c2.214-3.523 2.312-7.973-.102-11.335l-3.66-5.226-1.189-5.913h.099c-.013-.076-.086-.126-.099-.199-.57-4.125-3.848-7.475-8.016-7.982h-.101l-5.938-.789-5.245-3.646A9.763 9.763 0 0 0 38.5 0Zm0 6.405c.728 0 1.447.221 1.98.593l5.64 4.04.694.492.792.101 6.93.984h.094c1.426.158 2.414 1.145 2.575 2.565v.195l1.29 6.998.094.691.498.59 4.057 5.617c.757 1.047.855 2.822-.099 4.336l-4.453 6.21-.1.789-.989 6.9v.095a3.127 3.127 0 0 1-.494 1.381l-.2.101v.095a2.791 2.791 0 0 1-1.878.987h-.2l-7.224 1.284-.791.094-.596.495-5.64 4.04c-1.052.754-2.933.852-4.454-.097l-5.146-3.943-.596-.491-.89-.101-6.93-.984h-.094a2.81 2.81 0 0 1-2.18-1.382 3.113 3.113 0 0 1-.395-1.182v-.196l-1.286-7.194-.102-.789-.494-.592-4.057-5.617c-.757-1.047-.855-2.92.098-4.435l3.96-5.125.493-.593.099-.886.893-6.604c.012-.047.085-.047.098-.098a4.392 4.392 0 0 1 1.152-2.006 4.42 4.42 0 0 1 2.015-1.148c.05-.012.05-.085.098-.097l6.632-.89.792-.094.694-.495 5.64-4.04c.533-.37 1.252-.594 1.98-.594Zm21.872 47.999 4.853 7.392h-7.627l-.792 1.972-2.176 5.024-6.73-10.25 1.482-1.082 6.24-1.085v.098c.072-.013.12-.085.196-.098a9.425 9.425 0 0 0 4.551-1.971h.003Zm-43.744.098a9.042 9.042 0 0 0 4.947 2.267h.098l6.04.789 1.384 1.085-6.73 10.149-2.176-5.024-.792-1.971h-7.62l4.849-7.295Z" mask="url(#a)"/></svg>
